X:1
T:Title
%%score { 1 | 2 }
L:1/8
Q:1/4=100
M:4/4
K:Ab
V:1 treble nm="Grand Piano"
V:2 bass 
V:1
 [Ec]2 [CA]2 [CE]3 [CE] | [A,DF]2 [DFB]2 A2 G2 | A2 B2 c2 [Fd]2 | c2 B2 c4 | %4
w: G.~F.~Root * * *||||
 [Ec]2 [CA]2 [CE]3 [CE] | [A,DF]2 [DFB]2 A2 G2 | A2 B2 c2 [Fd]2 | [Ec]2 [DB]2 [A,CA]4 | %8
w: ||||
 [ce]2 [Ace]2 [Bde]2 [GBe]2 | [ce]2 [Ae]2 [Be]2 E2 | A2 B2 c2 d2 | c2 A2 B4 | %12
w: ||||
 [ce]2 [Ace]2 [Bde]2 [GBe]2 | [Ace]2 [Ae]2 [Be]2 [DE]2 | [CA]2 [DB]2 [Ec]2 [Fd]2 | %15
w: |||
 [Ec]2 [DB]2 [CA]4 |] %16
w: |
V:2
 [A,,A,]2 [A,,A,]2 [A,,A,]3 [A,,A,] | D,2 B,,2 [E,CE]2 [E,B,D]2 | %2
 [F,A,C]2 [E,G,E]2 [A,E]2 [D,A,]2 | [E,A,E]2 [E,G,E]2 [A,E]4 | [A,,A,]2 [A,,A,]2 [A,,A,]3 [A,,A,] | %5
 D,2 B,,2 [E,CE]2 [E,B,D]2 | [F,A,C]2 [E,G,E]2 [A,E]2 [D,A,]2 | [E,A,]2 E,2 A,,4 | %8
 A,2 A,2 [E,G,]2 [E,B,]2 | [A,A]2 [A,CE]2[K:bass] [E,DE]2 [E,B,D]2 | %10
 [A,C]2 [A,D]2 [A,E]2[K:treble] [A,F]2 | [A,E]2[K:bass] [F,A,=D]2 [E,G,E]4 | %12
 [E,A,]2 [E,A,]2 [E,G,]2 [E,B,]2 | [E,A,]2 [E,CE]2 [E,DE]2 [E,B,]2 | %14
 [A,,A,]2 [A,,A,]2 [A,,A,]2 [D,A,]2 | [E,A,]2 [E,G,]2 [A,,A,]4 |] %16

